AS/assets/images/icons/online-shop.svg

<svg width="150" height="150" viewBox="0 0 150 150" fill="none" xmlns="http://www.w3.org/2000/svg">
<path fill-rule="evenodd" clip-rule="evenodd" d="M140.757 11.7424H9.24287C4.14609 11.7424 0 15.8885 0 20.985V110.227C0 115.324 4.14609 119.47 9.24287 119.47H53.7231L51.924 133.863H44.4697C43.256 133.863 42.2725 134.847 42.2725 136.06C42.2725 137.274 43.256 138.257 44.4697 138.257H105.53C106.744 138.257 107.728 137.274 107.728 136.06C107.728 134.847 106.744 133.863 105.53 133.863H98.0763L96.2769 119.47H140.757C145.854 119.47 150 115.324 150 110.227V20.985C150 15.8885 145.854 11.7424 140.757 11.7424ZM56.3528 133.863L58.1522 119.47H66.2391L67.0324 122.643C67.9482 126.306 71.2248 128.863 75.0003 128.863C78.7758 128.863 82.0523 126.306 82.9682 122.643L83.7615 119.47H91.8483L93.6472 133.863H56.3528ZM70.7687 119.47H79.231L78.7043 121.577C78.2786 123.28 76.7555 124.469 74.9997 124.469C73.2439 124.469 71.7211 123.279 71.2951 121.577L70.7687 119.47ZM145.605 110.227C145.605 112.9 143.43 115.075 140.757 115.075H9.24287C6.56953 115.075 4.39453 112.9 4.39453 110.227V20.985C4.39453 18.3117 6.56953 16.137 9.24287 16.137H140.757C143.43 16.137 145.605 18.3117 145.605 20.985V110.227ZM124.318 21.1365H11.5908C10.3771 21.1365 9.39355 22.12 9.39355 23.3337V107.879C9.39355 109.092 10.3771 110.076 11.5908 110.076H16.288C17.5018 110.076 18.4853 109.092 18.4853 107.879C18.4855 106.665 17.5018 105.681 16.2883 105.681H13.7884V25.531H124.318C125.531 25.531 126.515 24.5472 126.515 23.3337C126.515 22.12 125.531 21.1365 124.318 21.1365ZM133.712 21.1365H138.409C139.622 21.1365 140.606 22.12 140.606 23.3337V107.879C140.606 109.092 139.622 110.076 138.409 110.076H25.6821C24.4684 110.076 23.4849 109.092 23.4849 107.879C23.4849 106.665 24.4684 105.681 25.6821 105.681H136.212V25.531H133.712C132.498 25.531 131.514 24.5472 131.514 23.3337C131.514 22.12 132.498 21.1365 133.712 21.1365Z" fill="#131313"/>
<g clip-path="url(#clip0)">
<path d="M66.3281 85.4531C63.4204 85.4531 61.0547 87.8188 61.0547 90.7266C61.0547 93.6343 63.4204 96 66.3281 96C69.2358 96 71.6016 93.6343 71.6016 90.7266C71.6016 87.8188 69.2358 85.4531 66.3281 85.4531ZM66.3281 94.2422C64.3895 94.2422 62.8125 92.6652 62.8125 90.7266C62.8125 88.7879 64.3895 87.2109 66.3281 87.2109C68.2668 87.2109 69.8438 88.7879 69.8438 90.7266C69.8438 92.6652 68.2668 94.2422 66.3281 94.2422Z" fill="#131313"/>
<path d="M67.207 90.7266C67.207 91.2118 66.8134 91.6055 66.3281 91.6055C65.8429 91.6055 65.4492 91.2118 65.4492 90.7266C65.4492 90.2413 65.8429 89.8477 66.3281 89.8477C66.8134 89.8477 67.207 90.2413 67.207 90.7266Z" fill="#131313"/>
<path d="M96.2109 85.4531C93.3032 85.4531 90.9375 87.8188 90.9375 90.7266C90.9375 93.6343 93.3032 96 96.2109 96C99.1187 96 101.484 93.6343 101.484 90.7266C101.484 87.8188 99.1187 85.4531 96.2109 85.4531ZM96.2109 94.2422C94.2723 94.2422 92.6953 92.6652 92.6953 90.7266C92.6953 88.7879 94.2723 87.2109 96.2109 87.2109C98.1496 87.2109 99.7266 88.7879 99.7266 90.7266C99.7266 92.6652 98.1496 94.2422 96.2109 94.2422Z" fill="#131313"/>
<path d="M97.0898 90.7266C97.0898 91.2118 96.6962 91.6055 96.2109 91.6055C95.7257 91.6055 95.332 91.2118 95.332 90.7266C95.332 90.2413 95.7257 89.8477 96.2109 89.8477C96.6962 89.8477 97.0898 90.2413 97.0898 90.7266Z" fill="#131313"/>
<path d="M62.4408 73.1484H100.605C101.043 73.1484 101.413 72.8271 101.476 72.394L104.991 47.7847C105.027 47.5324 104.952 47.277 104.785 47.0843C104.618 46.8916 104.376 46.7812 104.121 46.7812H59.1801L58.2518 40.2824C58.2504 40.2737 58.2495 40.2645 58.2481 40.2558L58.2449 40.2348C57.9117 37.8997 55.7208 36 53.362 36H47.6367C46.1829 36 45 37.1829 45 38.6367C45 40.0906 46.1829 41.2734 47.6367 41.2734H56.6176L61.0208 72.0933L58.1277 77.104C57.7428 77.7705 57.5391 78.5299 57.5391 79.3008C57.5391 81.7242 59.5102 83.6953 61.9336 83.6953H100.605C101.091 83.6953 101.484 83.3021 101.484 82.8164C101.484 82.3307 101.091 81.9375 100.605 81.9375H61.9336C60.4797 81.9375 59.2969 80.7546 59.2969 79.3008C59.2969 78.8384 59.4186 78.3834 59.6498 77.9838L62.4408 73.1484ZM47.6367 39.5156C47.1519 39.5156 46.7578 39.1215 46.7578 38.6367C46.7578 38.1519 47.1519 37.7578 47.6367 37.7578H53.362C54.5123 37.7578 55.6311 38.4994 56.18 39.5156H47.6367ZM101.015 63.1875H94.5319L95.0839 56.7422H101.936L101.015 63.1875ZM92.7672 63.1875H86.2756L86.4597 56.7422H90.7617C91.2474 56.7422 91.6406 56.349 91.6406 55.8633C91.6406 55.3776 91.2474 54.9844 90.7617 54.9844H86.51L86.694 48.5391H94.0228L92.7672 63.1875ZM86.0413 71.3906L86.2253 64.9453H92.6166L92.0645 71.3906H86.0413ZM84.4666 64.9453L84.2825 71.3906H78.2565L78.0725 64.9453H84.4666ZM78.0222 63.1875L77.8381 56.7422H84.7009L84.5169 63.1875H78.0222ZM84.7513 54.9844H77.7878L77.6038 48.5391H84.9353L84.7513 54.9844ZM76.0291 54.9844H69.0683L68.5162 48.5391H75.845L76.0291 54.9844ZM76.0794 56.7422L76.2634 63.1875H72.4805C71.9948 63.1875 71.6016 63.5807 71.6016 64.0664C71.6016 64.5521 71.9948 64.9453 72.4805 64.9453H76.3138L76.4978 71.3906H70.4745L69.2194 56.7422H76.0794ZM68.0072 63.1875H61.5239L60.6033 56.7422H67.4551L68.0072 63.1875ZM68.1578 64.9453L68.7103 71.3906H62.6958L61.7752 64.9453H68.1578ZM99.8433 71.3906H93.8287L94.3808 64.9453H100.764L99.8433 71.3906ZM102.187 54.9844H95.235L95.787 48.5391H103.108L102.187 54.9844ZM66.7516 48.5391L67.3041 54.9844H60.352L59.4315 48.5391H66.7516Z" fill="#131313"/>
</g>
<defs>
<clipPath id="clip0">
<rect width="60" height="60" fill="white" transform="translate(45 36)"/>
</clipPath>
</defs>
</svg>

<?xml version="1.0" encoding="utf-8"?>
<!-- Generator: Adobe Illustrator 22.1.0, SVG Export Plug-In . SVG Version: 6.00 Build 0)  -->
<svg version="1.1" id="Слой_1" xmlns="http://www.w3.org/2000/svg" xmlns:xlink="http://www.w3.org/1999/xlink" x="0px" y="0px"
	 viewBox="0 0 150 150" style="enable-background:new 0 0 150 150;" xml:space="preserve">
<style type="text/css">
	.st0{fill:#131313;}
</style>
<path class="st0" d="M140.8,11.7H9.2C4.1,11.7,0,15.9,0,21v89.2c0,5.1,4.1,9.2,9.2,9.2h44.5l-1.8,14.4h-7.5c-1.2,0-2.2,1-2.2,2.2
	c0,1.2,1,2.2,2.2,2.2h61.1c1.2,0,2.2-1,2.2-2.2c0-1.2-1-2.2-2.2-2.2h-7.5l-1.8-14.4h44.5c5.1,0,9.2-4.1,9.2-9.2V21
	C150,15.9,145.9,11.7,140.8,11.7z M56.4,133.9l1.8-14.4h8.1l0.8,3.2c0.9,3.7,4.2,6.2,8,6.2c3.8,0,7.1-2.6,8-6.2l0.8-3.2h8.1
	l1.8,14.4H56.4z M70.8,119.5h8.5l-0.5,2.1c-0.4,1.7-1.9,2.9-3.7,2.9c-1.8,0-3.3-1.2-3.7-2.9L70.8,119.5z M145.6,110.2
	c0,2.7-2.2,4.8-4.8,4.8H9.2c-2.7,0-4.8-2.2-4.8-4.8V21c0-2.7,2.2-4.8,4.8-4.8h131.5c2.7,0,4.8,2.2,4.8,4.8V110.2z M124.3,21.1H11.6
	c-1.2,0-2.2,1-2.2,2.2v84.5c0,1.2,1,2.2,2.2,2.2h4.7c1.2,0,2.2-1,2.2-2.2c0-1.2-1-2.2-2.2-2.2h-2.5V25.5h110.5c1.2,0,2.2-1,2.2-2.2
	C126.5,22.1,125.5,21.1,124.3,21.1z M133.7,21.1h4.7c1.2,0,2.2,1,2.2,2.2v84.5c0,1.2-1,2.2-2.2,2.2H25.7c-1.2,0-2.2-1-2.2-2.2
	c0-1.2,1-2.2,2.2-2.2h110.5V25.5h-2.5c-1.2,0-2.2-1-2.2-2.2C131.5,22.1,132.5,21.1,133.7,21.1z"/>
<g>
	<path class="st0" d="M66.3,85.5c-2.9,0-5.3,2.4-5.3,5.3c0,2.9,2.4,5.3,5.3,5.3c2.9,0,5.3-2.4,5.3-5.3
		C71.6,87.8,69.2,85.5,66.3,85.5z M66.3,94.2c-1.9,0-3.5-1.6-3.5-3.5c0-1.9,1.6-3.5,3.5-3.5c1.9,0,3.5,1.6,3.5,3.5
		C69.8,92.7,68.3,94.2,66.3,94.2z"/>
	<path class="st0" d="M67.2,90.7c0,0.5-0.4,0.9-0.9,0.9c-0.5,0-0.9-0.4-0.9-0.9c0-0.5,0.4-0.9,0.9-0.9
		C66.8,89.8,67.2,90.2,67.2,90.7z"/>
	<path class="st0" d="M96.2,85.5c-2.9,0-5.3,2.4-5.3,5.3c0,2.9,2.4,5.3,5.3,5.3c2.9,0,5.3-2.4,5.3-5.3
		C101.5,87.8,99.1,85.5,96.2,85.5z M96.2,94.2c-1.9,0-3.5-1.6-3.5-3.5c0-1.9,1.6-3.5,3.5-3.5c1.9,0,3.5,1.6,3.5,3.5
		C99.7,92.7,98.1,94.2,96.2,94.2z"/>
	<path class="st0" d="M97.1,90.7c0,0.5-0.4,0.9-0.9,0.9c-0.5,0-0.9-0.4-0.9-0.9c0-0.5,0.4-0.9,0.9-0.9
		C96.7,89.8,97.1,90.2,97.1,90.7z"/>
	<path class="st0" d="M62.4,73.1h38.2c0.4,0,0.8-0.3,0.9-0.8l3.5-24.6c0-0.3,0-0.5-0.2-0.7c-0.2-0.2-0.4-0.3-0.7-0.3H59.2l-0.9-6.5
		c0,0,0,0,0,0l0,0c-0.3-2.3-2.5-4.2-4.9-4.2h-5.7c-1.5,0-2.6,1.2-2.6,2.6c0,1.5,1.2,2.6,2.6,2.6h9L61,72.1l-2.9,5
		c-0.4,0.7-0.6,1.4-0.6,2.2c0,2.4,2,4.4,4.4,4.4h38.7c0.5,0,0.9-0.4,0.9-0.9c0-0.5-0.4-0.9-0.9-0.9H61.9c-1.5,0-2.6-1.2-2.6-2.6
		c0-0.5,0.1-0.9,0.4-1.3L62.4,73.1z M47.6,39.5c-0.5,0-0.9-0.4-0.9-0.9s0.4-0.9,0.9-0.9h5.7c1.2,0,2.3,0.7,2.8,1.8H47.6z M101,63.2
		h-6.5l0.6-6.4h6.9L101,63.2z M92.8,63.2h-6.5l0.2-6.4h4.3c0.5,0,0.9-0.4,0.9-0.9S91.2,55,90.8,55h-4.3l0.2-6.4H94L92.8,63.2z
		 M86,71.4l0.2-6.4h6.4l-0.6,6.4H86z M84.5,64.9l-0.2,6.4h-6l-0.2-6.4H84.5z M78,63.2l-0.2-6.4h6.9l-0.2,6.4H78z M84.8,55h-7
		l-0.2-6.4h7.3L84.8,55z M76,55h-7l-0.6-6.4h7.3L76,55z M76.1,56.7l0.2,6.4h-3.8c-0.5,0-0.9,0.4-0.9,0.9c0,0.5,0.4,0.9,0.9,0.9h3.8
		l0.2,6.4h-6l-1.3-14.6H76.1z M68,63.2h-6.5l-0.9-6.4h6.9L68,63.2z M68.2,64.9l0.6,6.4h-6l-0.9-6.4H68.2z M99.8,71.4h-6l0.6-6.4h6.4
		L99.8,71.4z M102.2,55h-7l0.6-6.4h7.3L102.2,55z M66.8,48.5l0.6,6.4h-7l-0.9-6.4H66.8z"/>
</g>
</svg>
